X:1
T:Svalbard, 77.88.77
T:Svalbard, 77.88.77
T:William Batchelder Bradbury, 1864
T:Public Domain Courtesy of the Cyber Hymnal™
C:William Batchelder Bradbury, 1864
Z:Public Domain
Z:Courtesy of the Cyber Hymnal™
%%score ( 1 2 ) 3
L:1/8
Q:1/4=80
M:2/4
K:F
V:1 treble 
V:2 treble 
V:3 bass 
V:1
 [FA][FA] [FA][EG] | [EG]F F2 | [EG][EG] [EG][DF] | [CE][DF] [EG]2 | [FA][FA] [FA][EG] | [EG]F FC | %6
 [GB][GB] [GB][FA] | [EG]F [FA][EG] | [FA][FA] [Ec][Ec] | [DF][DF] [CA]2 | [DG][GB] [FA][DG] | %11
 [CF][CE] [CF]2 |] %12
V:2
 x4 | x F F2 | x4 | x4 | x4 | x F FC | x4 | x F x2 | x4 | x4 | x4 | x4 |] %12
V:3
 [F,C][F,C] [F,C][C,B,] | [C,B,][F,A,] [F,A,]2 | C,C, C,C, | C,C, C,2 | F,F, F,C, | C,F, F,F, | %6
 C,C, C,C, | C,C, C,C, | [F,C][F,C] [C,C][C,C] | [D,A,][D,F,] [A,,F,]2 | %10
 [B,,B,][B,,D] [B,,C][B,,B,] | [C,A,][C,G,] [F,A,]2 |] %12

